X:33
T:David Adams
C: J. Scott Skinner
R: reel
M:2/4
L:1/16
Z: Jason R. Fruit <jason@gmail.com>
K:A
E | A/A/A (cA) !<(!.G.A.B!<)!.c | !>(!dcB!>)!A GEFG | A/A/A (cA) .B.c.d.f | ecdB cAA{g}a | A/A/A (cA) .G.A.B.c |
.d.c.B.A .G.F.E.G | .A.c.E.c .A.B.c.d | e2f2g2a2 & ecdB cAAg | !>!!f!aAag fddf | !>!bBba geeg | aAag fdaf |
ecdB cAAg | a/a/a (Aa) fddf | b/b/b (Bb) geeg | .a.g.a.e .f.a.e.a | eagb {g}aAA & ecdB cA"_D.C."A || !<(!y !<)!!>(!!fermata!"^Fine."[AE]8 !>)!y|]

